X:205
T: Tribute to Fred (A)
M: 6/8
L: 1/8
S: B.Flaherty
Z: B.Black
R: jig
K: G
DEG BAG | dBd BGE | DEG BdB | AFD E3 |
D2 G BAG | dBG Bcd | efg afd | faf g3 :|
bag agf | gfe dBG | bag agf | efd e3 |
bag agf | efe dBG | Bcd efg | afd g3 :|
